X:1
T:Title
%%score [ ( 1 2 ) ( 3 4 ) ] { ( 5 6 ) | 7 }
L:1/8
Q:1/4=120
M:4/4
K:Eb
V:1 treble nm="Midi_74"
V:2 treble 
V:3 bass nm="Midi_74"
V:4 bass 
V:5 treble nm="Org."
V:6 treble 
V:7 bass 
V:1
 (G6 F2) | E4 (F2 G2) | (A6 G2) || (F6 G2) | (A2 B2) (c2 d2) | e4 (G2 =A2) | B8 || (B6 c2) | %8
 d4 (c2 B2) | e8 || e8 | (e2 d2) (c2 B2) |{G} A4"^John Camidge\n(1790-1859)" F4 | G8 |] %14
V:2
 (B,6 D2) | E4 (D2 E2) | D8 || (D6 E2) | (F2 G2) (A2 F2) | E4 (E2 F2) | F8 || F8 | F4 D4 | E8 || %10
 E8 | E4 (E2 C2) | C4 D4 | E8 |] %14
V:3
 (G,6 A,2) | B,4 (A,2 G,2) | F,8 || B,8 | B,4 B,4 | B,4 E4 | D8 || D8 | D4 B,4 | (B,6 A,2) || %10
 (G,6 F,2) | E,4 (E,2 =E,2) | F,4 A,4 | G,8 |] %14
V:4
 (E,6 F,2) | G,4 (F,2 E,2) | B,,8 || B,8 | B,4 A,4 | G,4 C,4 | B,,8 || B,,8 | B,4 A,4 | %9
 (G,6 F,2) || (E,6 D,2) | (C,2 B,,2) (A,,2 G,,2) | F,,4 B,,4 | E,8 |] %14
V:5
 [B,EG]6 [B,DF]2 | [B,E]4 [B,DF]2 [B,EG]2 | [FA]6 [EG]2 || [DF]6 [EG]2 | [FA]2 [GB]2 [Ac]2 [Fd]2 | %5
 [Ee]4 G2 [F=A]2 | [DB]8 || B6 c2 | [DFBd]4 c2 B2 | [Ee]8 || e8 | e2 d2 [Ec]2 [C=EB]2 | %12
{[EG]} [CFA]4 [DF]4 | G8 |] %14
V:6
 x8 | x8 | B,8 || x8 | x8 | x4 E4 | F8 || [DF]8 | x4 [DF]4 | B6 A2 || [EG]8- | [EG]4 x4 | %12
 x4 x2 x2 | E8 |] %14
V:7
 [E,,E,]6 [F,,F,]2 | [G,,G,]4 [F,,F,]2 [E,,E,]2 | [B,,,B,,]8 || [B,,,B,,]8 | [B,,B,]4 [A,,A,]4 | %5
 [G,,G,]4 [C,,C,]4 | [B,,,B,,]8 || [B,,,B,,]8 | [B,,B,]4 [A,,A,]4 | [G,,G,]6 [F,,F,]2 || %10
 [E,,E,]6 [D,,D,]2 |"^8 vi" C,2 B,,2 A,,2 G,,2 | F,,4 B,,4 | [E,,E,G,B,]8 |] %14

